!!!OTL: Floh - Hatz
!!!ARE: Europa, Mitteleuropa, Deutschland
!!!SCT: A0467
!!!YEM: Copyright 1995, estate of Helmut Schaffrath.
**kern
*ICvox
*Ivox
*M4/2
*k[f#]
*G:
{2gg
=1
2gg
2gg
2gg
2gg
=2
1ffn
2ee}
{2dd
=3
2ee
2dd
2dd
2cc
=4
1dd
2r}
{2gg
=5
2gg
2gg
2gg
2gg
=6
1ffn
2ee}
{2dd
=7
2dd
2b
2cc
2a
=8
1g
2r}
{2g
=9
2b
2b
2cc
2cc
=10
1dd
2dd}
{2dd
=11
2ee
2dd
2dd
2cc
=12
1dd
2r}
{2g
=13
2dd
2ee
2ffn
2dd
=14
1gg
2gg}
{2gg
=15
2dd
2b
2cc
2a
=16
1.g}
==
!!!AGN: Romanze, Ballade, Lied
!! Forster II 1540 No.37.
!!!ONB: ESAC (Essen Associative Code) Database: ALTDEU
!!!AMT: simple quadruple
!!!AIN: vox
!!!EED: Helmut Schaffrath
!!!EEV: 1.0
*-
